doc/_static/img/logo_green.svg

<?xml version="1.0" encoding="UTF-8" standalone="no"?>
<!DOCTYPE svg PUBLIC "-//W3C//DTD SVG 1.1//EN" "http://www.w3.org/Graphics/SVG/1.1/DTD/svg11.dtd">
<svg width="573px" height="209px" version="1.1" xmlns="http://www.w3.org/2000/svg" xmlns:xlink="http://www.w3.org/1999/xlink" xml:space="preserve" xmlns:serif="http://www.serif.com/" style="fill-rule:evenodd;clip-rule:evenodd;stroke-linejoin:round;stroke-miterlimit:2;">
    <g transform="matrix(4.16667,0,0,4.16667,-2.77909e-16,-1678.62)">
        <g id="Full-Logo" serif:id="Full Logo" transform="matrix(0.400509,0,0,0.474848,0,276.093)">
            <rect x="0" y="266.984" width="343.313" height="105.297" style="fill:none;"/>
            <g id="Full-Logo" serif:id="Full Logo" transform="matrix(1.00059,0,0,0.843946,4.88898,271.771)">
                <g transform="matrix(1,0,0,1,0.00149605,0.00345913)">
                    <g id="Logo">
                        <path id="Logo" serif:id="Logo"
                            style="fill:rgb(0,102,102);fill-rule:nonzero;"
                            d="M1.556,35.965c-0.964,6.918 -1.248,14.077 -1.434,20.453c-0.44,14.919 -0.11,36.449 8.62,46.998c10,12 21.309,9.43 37.919,9.9c18.449,0.53 51.348,-0.74 61.997,-14.53c7.34,-9.499 3.8,-26.149 4.18,-39.168c0.182,-6.225 0.298,-13.461 -0.289,-20.507c-4.665,-0.406 -7.836,-0.523 -11.8,-0.024c-1.942,0.244 -3.652,0.624 -5.277,2.121c-0.807,0.748 -1.136,1.556 -2.024,2.617c-1.019,1.407 -2.054,2.55 -3.111,3.504c-5.362,4.838 -11.217,4.584 -18.173,9.338c-0,0 -0,0.001 -0.001,0.001c-1.897,1.288 -3.83,3.512 -4.562,5.363c-0.664,1.68 -1.202,3.092 -1.526,4.105c-0.935,2.929 -1.848,5.377 -3.043,8.167c-1.68,3.928 -3.772,7.702 -5.418,11.632c-1.073,2.562 -1.811,5.246 -2.373,7.955c-0.598,2.883 -0.948,6.668 -1.213,9.339c-0.221,2.222 -0.288,5.361 -0.379,6.687c-0.03,0.427 -0.133,1.258 -0.172,1.271c-0.039,0.012 -0.055,-0.796 -0.061,-1.195c-0.02,-1.323 -0.11,-4.495 -0.056,-6.741c0.066,-2.714 0.222,-6.671 0.449,-9.546c0.204,-2.579 0.638,-5.564 0.914,-7.707c0.334,-2.603 0.159,-5.683 -0.322,-7.969c-0.867,-4.123 -1.646,-6.353 -3.1,-8.854c-2.366,-4.069 -3.447,-6.861 -9.394,-10.209c-6.017,-3.389 -10.21,-7.691 -11.351,-9.036c-0.591,-0.698 -4.434,-4.847 -6.927,-6.753c-4.626,-3.536 -8.011,-4.729 -10.873,-5.663c-4.314,-1.406 -7.049,-1.363 -11.2,-1.549Zm19.863,-31.581c0.019,0.237 0.038,0.474 0.057,0.712c1.1,13.459 2.066,20.787 5.767,30.747c1.282,3.449 3.011,7.855 6.626,11.972c3.324,3.786 4.485,5.054 10.346,8.889c5.256,3.438 7.353,7.054 9.489,11.394c1.393,2.831 2.561,5.928 2.831,10.347c0.09,1.364 0.118,2.499 0.102,3.459c1.089,-2.925 2.303,-5.82 3.285,-8.779c0.916,-2.769 1.678,-5.617 2.324,-8.5c0.649,-2.893 1.164,-5.808 1.611,-8.699c0.38,-2.492 0.575,-4.976 0.606,-7.469c0.032,-2.476 -0.136,-4.943 -0.45,-7.427c-0.512,-4.029 -1.744,-8.187 -2.551,-12.337c-0.389,-2.003 -0.659,-3.996 -0.778,-5.971c-0.236,-4.606 0.649,-9.446 2.137,-14.316c0.812,-2.662 1.802,-5.334 2.854,-7.974c-2.533,-0.145 -5.054,-0.246 -7.505,-0.312c-11.941,-0.34 -25.971,-0.21 -36.751,4.264Zm54.689,-2.83c-0.458,0.988 -0.95,1.97 -1.384,2.97c-2.658,6.129 -5.483,12.208 -5.659,18.13c-0.07,1.623 -0.013,3.276 0.135,4.946c0.386,4.349 1.187,8.755 1.282,12.948c0.063,2.782 -0.044,5.529 -0.354,8.265c-0.307,2.716 -1.228,7.915 -1.411,8.609c0.98,-1.167 1.877,-2.031 3.225,-2.958c5.798,-3.992 11.4,-4.28 16.204,-9.374c2.181,-2.313 4.111,-5.702 5.87,-11.143c2.357,-7.226 6.485,-11.752 10.014,-16.833c0.435,-0.627 0.858,-1.264 1.263,-1.919l-0.145,-0.186c-5.399,-6.849 -13.699,-10.499 -22.889,-12.489c-1.057,-0.229 -3.449,-0.6 -6.151,-0.966Zm-63.394,8.157c-0.441,0.394 -0.869,0.803 -1.282,1.229c-4.805,4.912 -7.625,12.941 -9.183,20.901c5.29,0.213 7.084,0.574 10.212,1.465c1.915,0.546 5.844,2.151 8.593,4.14c-4.23,-7.693 -6.451,-17.282 -8.34,-27.735Zm95.738,10.893c-0.845,1.086 -1.729,2.139 -2.623,3.195c-2.822,3.336 -5.573,5.855 -7.616,10.795c-0.402,0.969 -0.923,2.218 -1.329,3.068c2.038,-0.814 3.727,-1.132 5.87,-1.347c3.012,-0.302 5.929,-0.174 9.443,-0.695c-0.654,-5.433 -1.801,-10.628 -3.745,-15.016Z"/>
                    </g>
                </g>
                <g transform="matrix(1,0,0,1,-3.31583,0.00345913)">
                    <g id="Text">
                        <path id="dantro" serif:id="dantro"
                            style="fill:rgb(0,102,102);fill-rule:nonzero;"
                            d="M216.069,65.252l0.002,-0.019l-0,-13.905c0.156,-3.028 -1.033,-5.975 -3.248,-8.047l-0.004,-0.003c-2.132,-1.917 -5.348,-2.901 -9.667,-2.901l-0.001,0c-1.775,0.013 -3.542,0.19 -5.282,0.529c-1.98,0.371 -3.925,0.914 -5.811,1.623l-0.456,0.171l1.932,5.59l0.471,-0.161c1.468,-0.5 2.972,-0.892 4.498,-1.171l0.004,-0.001c1.197,-0.239 2.408,-0.37 3.624,-0.391l0.011,0c1.698,-0.106 3.375,0.326 4.801,1.233c1.152,0.95 1.759,2.408 1.621,3.89l-0.002,0.023l-0,1.523c-0,0 -3.96,0 -3.96,0c-4.91,0.007 -8.666,0.935 -11.279,2.746c-2.654,1.775 -4.195,4.814 -4.059,8.004c-0.108,2.74 0.949,5.412 2.909,7.344l0.007,0.007c2.139,1.948 4.962,2.957 7.841,2.807c1.975,0.013 3.94,-0.37 5.772,-1.128c1.532,-0.623 2.907,-1.578 4.026,-2.791c0.558,1.023 1.372,1.89 2.367,2.513l0.008,0.005c1.296,0.748 2.731,1.2 4.213,1.329l0.394,0.034l1.772,-5.361l-0.516,-0.134c-0.597,-0.156 -1.125,-0.505 -1.501,-0.993c-0.382,-0.729 -0.55,-1.547 -0.487,-2.365Zm-31.414,-36.501l-7.608,-0.851l-0.029,15.167c-0.819,-0.727 -1.745,-1.326 -2.747,-1.776l-0.004,-0.002c-1.453,-0.626 -3.019,-0.937 -4.598,-0.912c-2.485,-0.061 -4.919,0.722 -6.903,2.221l-0.005,0.004c-1.984,1.584 -3.497,3.673 -4.38,6.046c-1.071,2.768 -1.598,5.716 -1.553,8.683c-0.051,2.95 0.382,5.896 1.283,8.712c0.715,2.348 2.111,4.432 4.01,5.987l0.02,0.015c1.996,1.473 4.44,2.214 6.918,2.097l-0.015,0.001c1.823,0.032 3.623,-0.406 5.229,-1.27l0.002,-0.001c1.226,-0.675 2.317,-1.56 3.229,-2.61c-0,-0 0.402,3.091 0.402,3.091l6.749,-0l-0,-44.602Zm98.438,42.879l0.41,-0.251l-2.904,-5.21l-0.434,0.235c-0.801,0.433 -1.649,0.774 -2.526,1.018c-0.983,0.273 -1.999,0.404 -3.019,0.392l-0.027,-0.001l-0.027,0.003c-1.331,0.127 -2.66,-0.261 -3.712,-1.083c-0.794,-0.923 -1.18,-2.125 -1.072,-3.334l0.002,-0.023l-0,-16.4c-0,0 9.698,0 9.698,0l0.894,-5.799l-10.592,-0c-0,-0 -0,-7.822 -0,-7.822l-7.599,0.909l-0,6.943c-0,-0 -6.939,-0 -6.939,-0l-0,5.799l6.939,0c-0,0 -0,16.398 -0,16.398c-0.122,2.885 0.945,5.698 2.95,7.776l0.003,0.004c1.965,1.958 4.827,2.959 8.604,2.959c1.735,0.008 3.463,-0.223 5.134,-0.688c1.484,-0.408 2.904,-1.022 4.217,-1.825Zm39.015,-31.253c-2.788,-0.117 -5.549,0.598 -7.93,2.053l-0.009,0.005c-2.216,1.474 -3.948,3.556 -4.99,5.995l-0.001,0.001c-1.163,2.768 -1.731,5.748 -1.669,8.748c-0.073,3.043 0.496,6.073 1.668,8.887l0.001,0.002c1.028,2.422 2.76,4.479 4.969,5.905l0.007,0.004c2.395,1.443 5.148,2.162 7.935,2.076l-0.013,0c2.783,0.103 5.536,-0.619 7.911,-2.073l0.007,-0.005c2.219,-1.457 3.948,-3.537 4.973,-5.978l-0,0c1.169,-2.793 1.741,-5.8 1.678,-8.827c0.066,-3.01 -0.495,-6.007 -1.647,-8.795l-0.001,-0.001c-1.013,-2.418 -2.726,-4.478 -4.916,-5.915l-0.008,-0.005c-2.402,-1.461 -5.174,-2.182 -7.975,-2.077l0.01,-0Zm-98.338,0.83l-0,32.146l7.569,-0l-0,-22.695c0.538,-0.732 1.147,-1.41 1.817,-2.023l0.002,-0.002c0.702,-0.654 1.496,-1.198 2.357,-1.616c0.825,-0.396 1.728,-0.601 2.643,-0.601l0.034,-0.001c0.884,-0.061 1.765,0.164 2.511,0.64c0.603,0.53 0.989,1.259 1.088,2.053l0.002,0.011c0.244,1.423 0.352,2.855 0.324,4.287l0,19.947l7.6,-0l-0,-23.243c0.151,-2.582 -0.657,-5.131 -2.269,-7.155l-0.019,-0.022c-1.538,-1.714 -3.836,-2.596 -6.911,-2.596l-0.002,0c-3.684,0.024 -7.184,1.553 -9.699,4.2c-0,0 -0.417,-3.33 -0.417,-3.33l-6.63,-0Zm83.304,-0.108l-1.26,7.32c-0.909,-0.232 -1.842,-0.35 -2.78,-0.35c-1.688,-0.07 -3.311,0.674 -4.359,1.999c-1.272,1.792 -2.139,3.839 -2.54,6l-0,16.657l-7.549,0l-0,-31.206l6.549,0l0.7,6.13c0.586,-1.987 1.711,-3.773 3.25,-5.16c1.358,-1.178 3.101,-1.818 4.899,-1.799c1.044,-0.008 2.084,0.13 3.09,0.409Zm-105.016,27.185l-0.033,0.001c-1.302,0.098 -2.591,-0.326 -3.58,-1.178c-0.854,-0.919 -1.285,-2.149 -1.193,-3.396l0.002,-0.029l-0.001,-0.03c-0.066,-1.496 0.609,-2.933 1.802,-3.839l0.002,-0.002c1.273,-0.986 3.399,-1.446 6.365,-1.446c0,-0 3.16,-0 3.16,-0c-0,-0 -0,6.208 -0,6.208c-0.703,1.128 -1.681,2.058 -2.843,2.704l-0.003,0.002c-1.122,0.646 -2.388,0.992 -3.678,1.005Zm-30.637,-21.838l0.01,0c1.116,-0.01 2.204,0.277 3.161,0.831c0.967,0.58 1.803,1.355 2.453,2.275c0.001,0 0.001,14.457 0.001,14.457c-0.703,1.097 -1.585,2.067 -2.609,2.871l0,0.001c-1.018,0.8 -2.284,1.222 -3.579,1.193l-0.012,-0.001c-1.147,0.027 -2.257,-0.341 -3.153,-1.039c-1.007,-0.909 -1.719,-2.092 -2.051,-3.403l-0.001,-0.003c-0.557,-2.068 -0.81,-4.203 -0.754,-6.34l0,-0.006c0,-3.751 0.576,-6.518 1.775,-8.297l0.004,-0.006c1.027,-1.629 2.838,-2.592 4.755,-2.533Zm150.658,0.06l0.028,0.001l0.028,-0.001c1.96,-0.111 3.833,0.846 4.89,2.499l0.004,0.006c1.15,1.699 1.694,4.435 1.687,8.203c-0.006,3.764 -0.558,6.535 -1.7,8.304c-1.148,1.587 -2.988,2.528 -4.944,2.528c-1.954,-0 -3.793,-0.94 -4.939,-2.522c-1.146,-1.758 -1.695,-4.509 -1.695,-8.249c0,-3.746 0.557,-6.504 1.717,-8.264l0.001,-0.001c1.073,-1.657 2.955,-2.614 4.923,-2.504Z"/>
                    </g>
                </g>
            </g>
        </g>
    </g>
</svg>

<?xml version="1.0" encoding="UTF-8" standalone="no"?>
<!DOCTYPE svg PUBLIC "-//W3C//DTD SVG 1.1//EN" "http://www.w3.org/Graphics/SVG/1.1/DTD/svg11.dtd">
<svg width="100%" height="100%" viewBox="0 0 340 114" version="1.1" xmlns="http://www.w3.org/2000/svg" xmlns:xlink="http://www.w3.org/1999/xlink" xml:space="preserve" xmlns:serif="http://www.serif.com/" style="fill-rule:evenodd;clip-rule:evenodd;stroke-linejoin:round;stroke-miterlimit:2;">
    <g transform="matrix(1,0,0,1,-3.31733,0)">
        <g id="Full-Logo" serif:id="Full Logo" transform="matrix(1,0,0,1,3.31583,-0.00345913)">
            <rect x="0.001" y="0.003" width="339.391" height="113.408" style="fill:none;"/>
            <clipPath id="_clip1">
                <rect x="0.001" y="0.003" width="339.391" height="113.408"/>
            </clipPath>
            <g clip-path="url(#_clip1)">
                <g transform="matrix(1,0,0,1,0.00149605,0.00345913)">
                    <g id="Logo">
                        <path id="Logo-v2" serif:id="Logo v2" d="M1.556,35.965C0.592,42.883 0.308,50.042 0.122,56.418C-0.318,71.337 0.012,92.867 8.742,103.416C18.742,115.416 30.051,112.846 46.661,113.316C65.11,113.846 98.009,112.576 108.658,98.786C115.998,89.287 112.458,72.637 112.838,59.618C113.02,53.393 113.136,46.157 112.549,39.111C107.884,38.705 104.713,38.588 100.749,39.087C98.807,39.331 97.097,39.711 95.472,41.208C94.665,41.956 94.336,42.764 93.448,43.825C92.429,45.232 91.394,46.375 90.337,47.329C84.975,52.167 79.12,51.913 72.164,56.667C72.164,56.667 72.164,56.668 72.163,56.668C70.266,57.956 68.333,60.18 67.601,62.031C66.937,63.711 66.399,65.123 66.075,66.136C65.14,69.065 64.227,71.513 63.032,74.303C61.352,78.231 59.26,82.005 57.614,85.935C56.541,88.497 55.803,91.181 55.241,93.89C54.643,96.773 54.293,100.558 54.028,103.229C53.807,105.451 53.74,108.59 53.649,109.916C53.619,110.343 53.516,111.174 53.477,111.187C53.438,111.199 53.422,110.391 53.416,109.992C53.396,108.669 53.306,105.497 53.36,103.251C53.426,100.537 53.582,96.58 53.809,93.705C54.013,91.126 54.447,88.141 54.723,85.998C55.057,83.395 54.882,80.315 54.401,78.029C53.534,73.906 52.755,71.676 51.301,69.175C48.935,65.106 47.854,62.314 41.907,58.966C35.89,55.577 31.697,51.275 30.556,49.93C29.965,49.232 26.122,45.083 23.629,43.177C19.003,39.641 15.618,38.448 12.756,37.514C8.442,36.108 5.707,36.151 1.556,35.965ZM21.419,4.384C21.438,4.621 21.457,4.858 21.476,5.096C22.576,18.555 23.542,25.883 27.243,35.843C28.525,39.292 30.254,43.698 33.869,47.815C37.193,51.601 38.354,52.869 44.215,56.704C49.471,60.142 51.568,63.758 53.704,68.098C55.097,70.929 56.265,74.026 56.535,78.445C56.625,79.809 56.653,80.944 56.637,81.904C57.726,78.979 58.94,76.084 59.922,73.125C60.838,70.356 61.6,67.508 62.246,64.625C62.895,61.732 63.41,58.817 63.857,55.926C64.237,53.434 64.432,50.95 64.463,48.457C64.495,45.981 64.327,43.514 64.013,41.03C63.501,37.001 62.269,32.843 61.462,28.693C61.073,26.69 60.803,24.697 60.684,22.722C60.448,18.116 61.333,13.276 62.821,8.406C63.633,5.744 64.623,3.072 65.675,0.432C63.142,0.287 60.621,0.186 58.17,0.12C46.229,-0.22 32.199,-0.09 21.419,4.384ZM76.108,1.554C75.65,2.542 75.158,3.524 74.724,4.524C72.066,10.653 69.241,16.732 69.065,22.654C68.995,24.277 69.052,25.93 69.2,27.6C69.586,31.949 70.387,36.355 70.482,40.548C70.545,43.33 70.438,46.077 70.128,48.813C69.821,51.529 68.9,56.728 68.717,57.422C69.697,56.255 70.594,55.391 71.942,54.464C77.74,50.472 83.342,50.184 88.146,45.09C90.327,42.777 92.257,39.388 94.016,33.947C96.373,26.721 100.501,22.195 104.03,17.114C104.465,16.487 104.888,15.85 105.293,15.195L105.148,15.009C99.749,8.16 91.449,4.51 82.259,2.52C81.202,2.291 78.81,1.92 76.108,1.554ZM12.714,9.711C12.273,10.105 11.845,10.514 11.432,10.94C6.627,15.852 3.807,23.881 2.249,31.841C7.539,32.054 9.333,32.415 12.461,33.306C14.376,33.852 18.305,35.457 21.054,37.446C16.824,29.753 14.603,20.164 12.714,9.711ZM108.452,20.604C107.607,21.69 106.723,22.743 105.829,23.799C103.007,27.135 100.256,29.654 98.213,34.594C97.811,35.563 97.29,36.812 96.884,37.662C98.922,36.848 100.611,36.53 102.754,36.315C105.766,36.013 108.683,36.141 112.197,35.62C111.543,30.187 110.396,24.992 108.452,20.604Z" style="fill:rgb(0,102,102);fill-rule:nonzero;"/>
                    </g>
                </g>
                <g transform="matrix(1,0,0,1,-3.31583,0.00345913)">
                    <g id="Text">
                        <path id="dantro--correct-weight-" serif:id="dantro (correct weight)" d="M216.069,65.252L216.071,65.233L216.071,51.328C216.227,48.3 215.038,45.353 212.823,43.281L212.819,43.278C210.687,41.361 207.471,40.377 203.152,40.377L203.151,40.377C201.376,40.39 199.609,40.567 197.869,40.906C195.889,41.277 193.944,41.82 192.058,42.529L191.602,42.7L193.534,48.29L194.005,48.129C195.473,47.629 196.977,47.237 198.503,46.958L198.507,46.957C199.704,46.718 200.915,46.587 202.131,46.566L202.142,46.566C203.84,46.46 205.517,46.892 206.943,47.799C208.095,48.749 208.702,50.207 208.564,51.689L208.562,51.712L208.562,53.235C208.562,53.235 204.602,53.235 204.602,53.235C199.692,53.242 195.936,54.17 193.323,55.981C190.669,57.756 189.128,60.795 189.264,63.985C189.156,66.725 190.213,69.397 192.173,71.329L192.18,71.336C194.319,73.284 197.142,74.293 200.021,74.143C201.996,74.156 203.961,73.773 205.793,73.015C207.325,72.392 208.7,71.437 209.819,70.224C210.377,71.247 211.191,72.114 212.186,72.737L212.194,72.742C213.49,73.49 214.925,73.942 216.407,74.071L216.801,74.105L218.573,68.744L218.057,68.61C217.46,68.454 216.932,68.105 216.556,67.617C216.174,66.888 216.006,66.07 216.069,65.252ZM184.655,28.751L177.047,27.9L177.018,43.067C176.199,42.34 175.273,41.741 174.271,41.291L174.267,41.289C172.814,40.663 171.248,40.352 169.669,40.377C167.184,40.316 164.75,41.099 162.766,42.598L162.761,42.602C160.777,44.186 159.264,46.275 158.381,48.648C157.31,51.416 156.783,54.364 156.828,57.331C156.777,60.281 157.21,63.227 158.111,66.043C158.826,68.391 160.222,70.475 162.121,72.03L162.141,72.045C164.137,73.518 166.581,74.259 169.059,74.142L169.044,74.143C170.867,74.175 172.667,73.737 174.273,72.873L174.275,72.872C175.501,72.197 176.592,71.312 177.504,70.262C177.504,70.262 177.906,73.353 177.906,73.353L184.655,73.353L184.655,28.751ZM283.093,71.63L283.503,71.379L280.599,66.169L280.165,66.404C279.364,66.837 278.516,67.178 277.639,67.422C276.656,67.695 275.64,67.826 274.62,67.814L274.593,67.813L274.566,67.816C273.235,67.943 271.906,67.555 270.854,66.733C270.06,65.81 269.674,64.608 269.782,63.399L269.784,63.376L269.784,46.976C269.784,46.976 279.482,46.976 279.482,46.976L280.376,41.177L269.784,41.177C269.784,41.177 269.784,33.355 269.784,33.355L262.185,34.264L262.185,41.207C262.185,41.207 255.246,41.207 255.246,41.207L255.246,47.006L262.185,47.006C262.185,47.006 262.185,63.404 262.185,63.404C262.063,66.289 263.13,69.102 265.135,71.18L265.138,71.184C267.103,73.142 269.965,74.143 273.742,74.143C275.477,74.151 277.205,73.92 278.876,73.455C280.36,73.047 281.78,72.433 283.093,71.63ZM322.108,40.377C319.32,40.26 316.559,40.975 314.178,42.43L314.169,42.435C311.953,43.909 310.221,45.991 309.179,48.43L309.178,48.431C308.015,51.199 307.447,54.179 307.509,57.179C307.436,60.222 308.005,63.252 309.177,66.066L309.178,66.068C310.206,68.49 311.938,70.547 314.147,71.973L314.154,71.977C316.549,73.42 319.302,74.139 322.089,74.053L322.076,74.053C324.859,74.156 327.612,73.434 329.987,71.98L329.994,71.975C332.213,70.518 333.942,68.438 334.967,65.997L334.967,65.997C336.136,63.204 336.708,60.197 336.645,57.17C336.711,54.16 336.15,51.163 334.998,48.375L334.997,48.374C333.984,45.956 332.271,43.896 330.081,42.459L330.073,42.454C327.671,40.993 324.899,40.272 322.098,40.377L322.108,40.377ZM223.77,41.207L223.77,73.353L231.339,73.353L231.339,50.658C231.877,49.926 232.486,49.248 233.156,48.635L233.158,48.633C233.86,47.979 234.654,47.435 235.515,47.017C236.34,46.621 237.243,46.416 238.158,46.416L238.192,46.415C239.076,46.354 239.957,46.579 240.703,47.055C241.306,47.585 241.692,48.314 241.791,49.108L241.793,49.119C242.037,50.542 242.145,51.974 242.117,53.406L242.117,73.353L249.717,73.353L249.717,50.11C249.868,47.528 249.06,44.979 247.448,42.955L247.429,42.933C245.891,41.219 243.593,40.337 240.518,40.337L240.516,40.337C236.832,40.361 233.332,41.89 230.817,44.537C230.817,44.537 230.4,41.207 230.4,41.207L223.77,41.207ZM307.074,41.099L305.814,48.419C304.905,48.187 303.972,48.069 303.034,48.069C301.346,47.999 299.723,48.743 298.675,50.068C297.403,51.86 296.536,53.907 296.135,56.068L296.135,72.725L288.586,72.725L288.586,41.519L295.135,41.519L295.835,47.649C296.421,45.662 297.546,43.876 299.085,42.489C300.443,41.311 302.186,40.671 303.984,40.69C305.028,40.682 306.068,40.82 307.074,41.099ZM202.058,68.284L202.025,68.285C200.723,68.383 199.434,67.959 198.445,67.107C197.591,66.188 197.16,64.958 197.252,63.711L197.254,63.682L197.253,63.652C197.187,62.156 197.862,60.719 199.055,59.813L199.057,59.811C200.33,58.825 202.456,58.365 205.422,58.365C205.422,58.365 208.582,58.365 208.582,58.365C208.582,58.365 208.582,64.573 208.582,64.573C207.879,65.701 206.901,66.631 205.739,67.277L205.736,67.279C204.614,67.925 203.348,68.271 202.058,68.284ZM171.421,46.446L171.431,46.446C172.547,46.436 173.635,46.723 174.592,47.277C175.559,47.857 176.395,48.632 177.045,49.552C177.046,49.552 177.046,64.009 177.046,64.009C176.343,65.106 175.461,66.076 174.437,66.88L174.437,66.881C173.419,67.681 172.153,68.103 170.858,68.074L170.846,68.073C169.699,68.1 168.589,67.732 167.693,67.034C166.686,66.125 165.974,64.942 165.642,63.631L165.641,63.628C165.084,61.56 164.831,59.425 164.887,57.288L164.887,57.282C164.887,53.531 165.463,50.764 166.662,48.985L166.666,48.979C167.693,47.35 169.504,46.387 171.421,46.446ZM322.079,46.506L322.107,46.507L322.135,46.506C324.095,46.395 325.968,47.352 327.025,49.005L327.029,49.011C328.179,50.71 328.723,53.446 328.716,57.214C328.71,60.978 328.158,63.749 327.016,65.518C325.868,67.105 324.028,68.046 322.072,68.046C320.118,68.046 318.279,67.106 317.133,65.524C315.987,63.766 315.438,61.015 315.438,57.275C315.438,53.529 315.995,50.771 317.155,49.011L317.156,49.01C318.229,47.353 320.111,46.396 322.079,46.506Z" style="fill:rgb(0,102,102);fill-rule:nonzero;"/>
                    </g>
                </g>
            </g>
        </g>
    </g>
</svg>
